X: 1
T:Steam Boat
M:6/8
L:1/8
Q:80
C:Trad.
S:March
K:HP
|: e|
{ag}a2e{gcd}c2{e}A|
{g}A3/2{d}c/2e{ag}a3|
{g}a3/2g/2f{gef}e3/2d/2c|  !
{g}B3/2c/2d{gcd}c3/2B/2{d}A|
{ag}a2e{gcd}c2{e}A|
{g}A3/2{d}c/2e{ag}a3|  !
{g}a3/2g/2f{gef}e3/2d/2c|
{gef}e3/2c/2{d}A{GAG}A2:| |:
B|  !
{gcd}c2e{g}e3/2f/2e|
{g}e3/2f/2e{gcd}c2{e}A|
{Gdc}d2f{g}f/2a3/2f|  !
{g}f3/2g/2a{fg}f2e|
{gcd}c2e{g}e3/2f/2e|
{g}e3/2f/2e{gcd}c2{e}A|  !
a3/2g/2f{gef}e3/2d/2c|
{gef}e3/2c/2{d}A{GAG}A2:|
